X: 42221
T: Way To Mull River, The
R: reel
M: 4/4
K: Amixolydian
d2|:e2ef ecBA|dgfe fbad|e2ef ecAc|dcBA BcdB|
e2ef ecBA|dgfe fbae|a2ef ecAF|1 EdcBA2d2:|2 EdcBA2ce||
|:a2gb afe2|fgfe fbag|a2ef ecAc|dcBA BcdB|
[1 a2gb afe2|fgfe fbae|a2ef ecAF|EdcB A2ce:|
[2 e2ef ecBA|dgfe fbae|a2ef ecAF|EdcBA2Af||

